X:54
T:Kiss Me Sweetly. 2voices. Dix.54
M:C
L:1/8
Q:1/4=110
S:Anon. MS dated 1811, from Dixon collection, Holton le Moor, Lincs.
R:reel
N:Repeat signs added at start
N:Incomplete in MS
O:England;Lincolnshire;Holton le Moor
Z:vmp.R.Greig 2012 <http://www.village-music-project.org.uk>
K:C
[V:1]|:g|(a/g/f/e/) cg egcg|(a/g/f/e/) cg eddg|(a/g/f/e/) cg egcg|cAGE C/C/C C:|!
[V:2]|:z|C,2E,2C2E,2|C,2E,2G,2B,2|C2E,2C,2G,2|F,2C,2[C,2C,,2]”cr in ms”[C,C,,]:|
[V:1]|:G|EGcG AGcG|EGcE d(DDF)|EGcG EGca|gede c/c/c cG|!
[V:2]|:z|C,2E,2C,2E,2|C,2C,2B,,2B,,2|C,2E,2C,2F,2|”^Tune incomplete in MS”E,2G,2C,2C,2|

